svgs/duotone/film-slash.svg

<svg xmlns="http://www.w3.org/2000/svg" viewBox="0 0 640 512"><!--! Font Awesome Pro 6.3.0 by @fontawesome - https://fontawesome.com License - https://fontawesome.com/license (Commercial License) Copyright 2023 Fonticons, Inc. --><defs><style>.fa-secondary{opacity:.4}</style></defs><path class="fa-primary" d="M630.8 469.1L38.81 5.113C28.34-3.058 13.31-1.246 5.109 9.192c-8.172 10.44-6.344 25.53 4.078 33.7L601.2 506.9C605.6 510.3 610.8 512 615.1 512c7.125 0 14.17-3.156 18.91-9.188C643.1 492.4 641.2 477.3 630.8 469.1z"/><path class="fa-secondary" d="M400 416h-160C231.2 416 224 408.8 224 400v-96C224 295.2 231.2 288 240 288h4.082L176 234.6V280C176 284.4 172.4 288 168 288h-48C115.6 288 112 284.4 112 280v-48C112 227.6 115.6 224 120 224h42.43L64 146.9V432C64 458.5 85.49 480 112 480h377l-83.17-65.19C404.1 415.5 402.1 416 400 416zM176 408C176 412.4 172.4 416 168 416h-48c-4.418 0-8-3.582-8-8v-48C112 355.6 115.6 352 120 352h48c4.418 0 8 3.582 8 8V408zM528 32h-416C101.7 32 92.21 35.31 84.39 40.84L224 150.3V112C224 103.2 231.2 96 240 96h160C408.8 96 416 103.2 416 112v96C416 216.8 408.8 224 400 224H318.1l163.3 128H520c4.418 0 8 3.582 8 8v28.53l48 37.62V80C576 53.49 554.5 32 528 32zM528 280C528 284.4 524.4 288 520 288h-48c-4.418 0-8-3.582-8-8v-48C464 227.6 467.6 224 472 224h48c4.418 0 8 3.582 8 8V280zM528 152C528 156.4 524.4 160 520 160h-48c-4.418 0-8-3.582-8-8v-48C464 99.58 467.6 96 472 96h48c4.418 0 8 3.582 8 8V152z"/></svg>

<svg xmlns="http://www.w3.org/2000/svg" viewBox="0 0 640 512"><!-- Font Awesome Pro 6.0.0-alpha2 by @fontawesome - https://fontawesome.com License - https://fontawesome.com/license (Commercial License) --><defs><style>.fa-secondary{opacity:.4}</style></defs><path d="M400 416H240C231.164 416 224 408.836 224 400V304C224 295.164 231.164 288 240 288H244.082L176 234.639V280C176 284.418 172.418 288 168 288H120C115.582 288 112 284.418 112 280V232C112 227.582 115.582 224 120 224H162.426L64 146.855V432C64 458.508 85.492 480 112 480H489.049L405.879 414.812C404.053 415.539 402.086 416 400 416ZM176 408C176 412.418 172.418 416 168 416H120C115.582 416 112 412.418 112 408V360C112 355.582 115.582 352 120 352H168C172.418 352 176 355.582 176 360V408ZM528 32H112C101.699 32 92.211 35.312 84.391 40.836L224 150.26V112C224 103.164 231.164 96 240 96H400C408.836 96 416 103.164 416 112V208C416 216.836 408.836 224 400 224H318.084L481.396 352H520C524.418 352 528 355.582 528 360V388.527L576 426.148V80C576 53.492 554.508 32 528 32ZM528 280C528 284.418 524.418 288 520 288H472C467.582 288 464 284.418 464 280V232C464 227.582 467.582 224 472 224H520C524.418 224 528 227.582 528 232V280ZM528 152C528 156.418 524.418 160 520 160H472C467.582 160 464 156.418 464 152V104C464 99.582 467.582 96 472 96H520C524.418 96 528 99.582 528 104V152Z" class="fa-secondary"/><path d="M630.813 469.109L38.812 5.114C28.343 -3.058 13.312 -1.246 5.109 9.192C-3.063 19.629 -1.235 34.723 9.187 42.895L601.188 506.891C605.594 510.328 610.797 512 615.985 512C623.11 512 630.157 508.844 634.891 502.812C643.063 492.375 641.235 477.281 630.813 469.109Z" class="fa-primary"/></svg>
